svgs/regular/bullhorn.svg

<svg xmlns="http://www.w3.org/2000/svg" viewBox="0 0 512 512"><!--! Font Awesome Pro 6.5.1 by @fontawesome - https://fontawesome.com License - https://fontawesome.com/license (Commercial License) Copyright 2023 Fonticons, Inc. --><path d="M432 73.9L421.3 84.6C364.5 141.4 288.1 174 208 175.9v.1V304v0 .1c80.1 1.9 156.5 34.5 213.3 91.3L432 406.1V73.9zM160 128h40.7c70 0 137.2-27.8 186.7-77.3l38-38C445.5-7.5 480 6.8 480 35.3V179.6c18.6 8.8 32 32.5 32 60.4s-13.4 51.6-32 60.4V444.7c0 28.5-34.5 42.8-54.6 22.6l-38-38c-47.8-47.8-112-75.4-179.4-77.2V456c0 30.9-25.1 56-56 56H120c-30.9 0-56-25.1-56-56l0-104c-35.3 0-64-28.7-64-64V192c0-35.3 28.7-64 64-64h96zM112 352V456c0 4.4 3.6 8 8 8h32c4.4 0 8-3.6 8-8V352H112zM64 176c-8.8 0-16 7.2-16 16v96c0 8.8 7.2 16 16 16l0 0h48 48V176l-96 0z"/></svg>

<svg xmlns="http://www.w3.org/2000/svg" viewBox="0 0 512 512"><!--! Font Awesome Pro 6.1.1 by @fontawesome - https://fontawesome.com License - https://fontawesome.com/license (Commercial License) Copyright 2022 Fonticons, Inc. --><path d="M200.7 128C270.7 128 337.9 100.2 387.4 50.68L425.4 12.69C445.5-7.472 480 6.805 480 35.31V179.6C498.6 188.4 512 212.1 512 240C512 267.9 498.6 291.6 480 300.4V444.7C480 473.2 445.5 487.5 425.4 467.3L387.4 429.3C339.6 381.5 275.4 353.1 208 352.1V456C208 486.9 182.9 512 152 512H120C89.07 512 64 486.9 64 456V352C28.65 352 0 323.3 0 288V192C0 156.7 28.65 128 64 128L200.7 128zM432 73.94L421.3 84.62C364.5 141.4 288.1 174 208 175.9V304.1C288.1 305.1 364.5 338.6 421.3 395.4L432 406.1V73.94zM112 456C112 460.4 115.6 464 120 464H152C156.4 464 160 460.4 160 456V352H112V456zM48 192V288C48 296.8 55.16 303.1 64 303.1H160V176H64C55.16 176 48 183.2 48 192V192z"/></svg>
